src/assets/svgicons/gruop-tshirt.svg

<svg width="36" height="40" viewBox="0 0 36 40" fill="none" xmlns="http://www.w3.org/2000/svg">
<g clip-path="url(#clip0_1108_252)">
<path d="M24.5507 0.0996094C24.8279 0.171024 25.0729 0.229385 25.3148 0.297728C27.2314 0.835259 29.0928 1.50871 30.889 2.38181C32.4685 3.14971 33.466 4.35225 34.0297 5.99325C34.6824 7.89304 35.1224 9.83891 35.3927 11.8232C35.62 13.4903 35.7936 15.1643 35.9878 16.8353C36.0477 17.3467 35.8857 17.6677 35.448 17.8627C33.6112 18.6821 31.7091 19.2757 29.6972 19.473C29.6235 19.4799 29.549 19.4738 29.4438 19.4738C29.4369 19.3432 29.4238 19.2196 29.4238 19.0952C29.4238 17.3198 29.4154 15.5452 29.4292 13.7698C29.4376 12.6763 29.6219 11.6089 30.0973 10.6168C30.2769 10.2421 30.5188 9.89036 30.7738 9.55939C31.1086 9.12553 31.1362 8.64098 30.7937 8.32691C30.4282 7.9921 29.9414 8.0497 29.5536 8.48817C28.7358 9.41119 28.2458 10.5085 28.0585 11.7064C27.898 12.7339 27.822 13.7852 27.8189 14.8264C27.7997 22.2336 27.8089 29.6408 27.8081 37.048C27.8081 37.6899 27.6507 37.8934 27.0203 38.0816C25.0053 38.6821 22.9381 38.9961 20.8448 39.0629C18.8943 39.1251 16.9385 39.1305 14.9888 39.0568C12.9485 38.9792 10.9297 38.6713 8.96614 38.077C8.33723 37.8865 8.18979 37.6853 8.18979 37.0364C8.18979 29.2845 8.19824 21.5325 8.18211 13.7813C8.17827 12.1403 7.8427 10.5623 6.94195 9.1524C6.75765 8.86444 6.5411 8.58876 6.29922 8.34687C5.98054 8.02819 5.50904 8.04509 5.19497 8.3415C4.9024 8.61717 4.84174 9.10786 5.11818 9.4181C6.19248 10.6245 6.51807 12.0942 6.55953 13.6339C6.60945 15.4968 6.57259 17.3628 6.57259 19.2273C6.57259 19.301 6.56491 19.3755 6.55646 19.5436C5.77781 19.4062 5.01375 19.3394 4.29115 19.1297C3.05944 18.7711 1.84769 18.338 0.639012 17.9057C0.119143 17.7199 -0.038277 17.402 0.00856503 16.8583C0.247382 14.0631 0.574509 11.2795 1.22185 8.54499C1.54206 7.19272 1.94445 5.86809 2.58795 4.62255C3.10935 3.61353 3.97324 3.00689 4.92698 2.49469C6.91354 1.42578 9.046 0.742343 11.2123 0.152595C11.2829 0.133397 11.3605 0.141844 11.4518 0.135701C11.4726 0.505829 11.4518 0.868279 11.5202 1.21307C11.7375 2.32499 12.467 3.08521 13.41 3.59433C16.5507 5.28909 19.7014 5.27757 22.7945 3.46072C23.6407 2.96388 24.2758 2.23975 24.4731 1.23303C24.5407 0.886709 24.5246 0.525027 24.5507 0.0996094Z" fill="#AAAAAA"/>
<path d="M13.1596 0.000767902C16.381 0.877712 19.6231 0.89307 22.8421 0C23.0871 0.971396 22.687 1.59416 21.9828 2.05721C20.5392 3.00634 18.9389 3.31887 17.2357 3.15992C16.169 3.06009 15.16 2.76675 14.2393 2.20465C14.1303 2.13861 14.0266 2.06412 13.9229 1.98963C13.281 1.52582 12.9316 0.935304 13.1604 0.0015358L13.1596 0.000767902Z" fill="#AAAAAA"/>
</g>
<defs>
<clipPath id="clip0_1108_252">
<rect width="36" height="39.11" fill="white"/>
</clipPath>
</defs>
</svg>

<svg viewBox="0 0 36 40" xmlns="http://www.w3.org/2000/svg"><g><path d="M24.55.1c.278.071.523.13.765.198 1.916.537 3.778 1.21 5.574 2.084 1.58.768 2.577 1.97 3.14 3.611a30.6 30.6 0 0 1 1.364 5.83c.227 1.667.4 3.341.595 5.012.06.512-.102.833-.54 1.028-1.837.82-3.739 1.413-5.75 1.61-.075.007-.149 0-.254 0-.007-.13-.02-.253-.02-.378 0-1.775-.009-3.55.005-5.325.009-1.094.193-2.161.668-3.153.18-.375.422-.727.677-1.058.335-.433.362-.918.02-1.232-.366-.335-.853-.277-1.24.161a6.23 6.23 0 0 0-1.495 3.218 21 21 0 0 0-.24 3.12c-.02 7.408-.01 14.815-.01 22.222 0 .642-.158.845-.789 1.034-2.015.6-4.082.914-6.175.98-1.95.063-3.906.069-5.856-.005-2.04-.078-4.06-.386-6.023-.98-.629-.19-.776-.392-.776-1.04 0-7.752.008-15.504-.008-23.256-.004-1.64-.34-3.219-1.24-4.629a4.8 4.8 0 0 0-.643-.805c-.318-.319-.79-.302-1.104-.005-.293.275-.353.766-.077 1.076 1.074 1.207 1.4 2.676 1.442 4.216.05 1.863.013 3.729.013 5.593 0 .074-.008.148-.017.317-.778-.138-1.542-.205-2.265-.414-1.232-.359-2.443-.792-3.652-1.224-.52-.186-.677-.504-.63-1.048.238-2.795.566-5.578 1.213-8.313.32-1.352.722-2.677 1.366-3.922.521-1.01 1.385-1.616 2.339-2.128C6.914 1.425 9.046.742 11.212.153c.07-.02.149-.011.24-.017.02.37 0 .732.068 1.077.218 1.112.947 1.872 1.89 2.381 3.14 1.695 6.291 1.684 9.385-.133.846-.497 1.48-1.221 1.678-2.228.068-.346.052-.708.078-1.133"/><path d="M13.16 0c3.221.878 6.463.893 9.682 0 .245.971-.155 1.594-.86 2.057-1.443.95-3.043 1.262-4.746 1.103-1.067-.1-2.076-.393-2.997-.955a5 5 0 0 1-.316-.215c-.642-.464-.991-1.055-.763-1.988z"/></g></svg>
